; generated by PrusaSlicer 2.1.1+win64 on 2020-03-25 at 16:31:06 UTC

; 

; external perimeters extrusion width = 0.60mm
; perimeters extrusion width = 0.43mm
; infill extrusion width = 0.45mm
; solid infill extrusion width = 0.70mm
; top infill extrusion width = 0.43mm
; first layer extrusion width = 0.42mm

M73 P0 R130
M201 X9000 Y9000 Z500 E10000 ; sets maximum accelerations, mm/sec^2
M203 X500 Y500 Z12 E120 ; sets maximum feedrates, mm/sec
M204 P2000 R1500 T2000 ; sets acceleration (P, T) and retract acceleration (R), mm/sec^2
M205 X10.00 Y10.00 Z0.20 E2.50 ; sets the jerk limits, mm/sec
M205 S0 T0 ; sets the minimum extruding and travel feed rate, mm/sec
M107
M862.3 P "MK2S" ; printer model check
M862.1 P0.4 ; nozzle diameter check
M115 U3.2.3 ; tell printer latest fw version
G90 ; use absolute coordinates
M83 ; extruder relative mode
M204 S2000 T1500 ; MK2 firmware only supports the old M204 format
M104 S220 ; set extruder temp
M140 S65 ; set bed temp
M190 S65 ; wait for bed temp
M109 S220 ; wait for extruder temp
G28 W ; home all without mesh bed level
G80 ; mesh bed leveling
G1 Y-3.0 F1000.0 ; go outside print area
G92 E0.0
G1 X60.0 E9.0  F1000.0 ; intro line
M73 P0 R130
G1 X100.0 E12.5 F1000.0 ; intro line
G92 E0.0
G21 ; set units to millimeters
G90 ; use absolute coordinates
M83 ; use relative distances for extrusion
M900 K30 ; Filament gcode
;BEFORE_LAYER_CHANGE
G92 E0.0
;0.2


G1 E-0.80000 F2100.00000
G1 Z0.600 F12000.000
;AFTER_LAYER_CHANGE
;0.2
G1 X36.085 Y34.735
G1 Z0.200
G1 E0.80000 F2100.00000
M204 S1000
G1 F1200
G1 X36.563 Y34.427 E0.01783
G1 X37.018 Y34.270 E0.01510
G1 X37.497 Y34.216 E0.01510
G1 X212.504 Y34.216 E5.48722
G1 X213.293 Y34.365 E0.02518
G1 X213.975 Y34.788 E0.02518
G1 X214.459 Y35.429 E0.02518
G1 X214.679 Y36.198 E0.02507
G1 X220.121 Y112.373 E2.39452
G1 X220.020 Y113.199 E0.02608
G1 X218.650 Y116.508 E0.11228
G1 X215.972 Y122.162 E0.19617
G1 X214.458 Y125.010 E0.10112
G1 X211.275 Y130.381 E0.19576
G1 X209.498 Y133.083 E0.10141
G1 X205.806 Y138.169 E0.19705
G1 X201.832 Y142.990 E0.19590
G1 X199.669 Y145.381 E0.10110
G1 X195.261 Y149.817 E0.19606
G1 X192.881 Y152.001 E0.10128
G1 X188.087 Y156.006 E0.19589
G1 X185.516 Y157.959 E0.10123
G1 X180.369 Y161.504 E0.19594
G1 X177.627 Y163.212 E0.10129
G1 X172.176 Y166.263 E0.19588
G1 X169.276 Y167.715 E0.10170
G1 X163.577 Y170.243 E0.19547
G1 X160.536 Y171.427 E0.10232
G1 X154.593 Y173.426 E0.19661
G1 X148.546 Y175.055 E0.19634
G1 X145.361 Y175.756 E0.10227
G1 X139.169 Y176.818 E0.19696
G1 X132.958 Y177.494 E0.19591
G1 X129.737 Y177.695 E0.10120
G1 X126.545 Y177.793 E0.10011
G1 X120.265 Y177.695 E0.19696
G1 X114.000 Y177.211 E0.19702
G1 X110.763 Y176.808 E0.10227
G1 X104.607 Y175.750 E0.19585
G1 X98.491 Y174.307 E0.19702
G1 X95.364 Y173.413 E0.10198
G1 X89.464 Y171.427 E0.19519
G1 X86.423 Y170.243 E0.10232
G1 X80.713 Y167.710 E0.19587
G1 X77.824 Y166.263 E0.10129
G1 X72.373 Y163.212 E0.19587
G1 X69.631 Y161.504 E0.10129
G1 X64.486 Y157.960 E0.19587
G1 X59.538 Y154.084 E0.19707
G1 X57.066 Y151.954 E0.10232
G1 X52.528 Y147.660 E0.19587
G1 X48.236 Y143.068 E0.19707
G1 X46.122 Y140.583 E0.10232
G1 X42.319 Y135.668 E0.19484
G1 X40.443 Y132.997 E0.10232
G1 X37.095 Y127.724 E0.19587
G1 X35.485 Y124.906 E0.10176
G1 X32.638 Y119.341 E0.19598
G1 X30.111 Y113.545 E0.19823
G1 X29.920 Y112.974 E0.01889
G1 X29.876 Y112.425 E0.01726
G1 X35.319 Y36.219 E2.39547
G1 X35.441 Y35.664 E0.01783
G1 X35.703 Y35.155 E0.01794
G1 X36.045 Y34.779 E0.01594
G1 F9600
G1 X36.563 Y34.427 E-0.13024
G1 X37.018 Y34.270 E-0.10005
G1 X37.497 Y34.216 E-0.10005
G1 X39.564 Y34.216 E-0.42965
G1 E-0.04000 F2100.00000
G1 Z0.800 F12000.000
G1 X210.610 Y81.392
G1 Z0.200
G1 E0.80000 F2100.00000
G1 F1200
G1 X210.237 Y81.500 E0.01217
G1 X210.034 Y81.183 E0.01180
G1 X209.909 Y81.040 E0.00596
G1 X209.724 Y80.887 E0.00752
G1 X209.548 Y80.786 E0.00638
G1 X209.157 Y82.062 E0.04183
G1 X208.599 Y83.752 E0.05581
G1 X207.699 Y86.237 E0.08287
G1 X207.180 Y87.562 E0.04460
G1 X206.608 Y88.945 E0.04694
G1 X205.981 Y90.384 E0.04922
G1 X205.296 Y91.874 E0.05140
G1 X204.551 Y93.409 E0.05350
G1 X203.743 Y94.984 E0.05551
G1 X202.870 Y96.595 E0.05746
G1 X201.930 Y98.237 E0.05933
G1 X200.920 Y99.905 E0.06114
G1 X199.838 Y101.595 E0.06290
G1 X198.681 Y103.300 E0.06461
G1 X197.448 Y105.017 E0.06628
G1 X196.122 Y106.757 E0.06862
G1 X194.612 Y108.624 E0.07527
G1 X193.778 Y109.605 E0.04037
G1 X192.892 Y110.613 E0.04209
G1 X191.887 Y111.716 E0.04679
G1 X190.818 Y112.842 E0.04867
G1 X189.685 Y113.987 E0.05051
G1 X188.487 Y115.148 E0.05231
G1 X187.222 Y116.321 E0.05408
G1 X185.890 Y117.501 E0.05582
G1 X184.487 Y118.685 E0.05754
G1 X183.015 Y119.869 E0.05925
G1 X181.471 Y121.049 E0.06094
G1 X179.853 Y122.221 E0.06263
G1 X178.166 Y123.379 E0.06417
G1 X176.414 Y124.514 E0.06545
G1 X174.888 Y125.448 E0.05608
G1 X172.765 Y126.679 E0.07696
G1 X170.933 Y127.674 E0.06535
G1 X169.108 Y128.608 E0.06427
G1 X167.612 Y129.334 E0.05215
G1 X166.126 Y130.023 E0.05136
G1 X164.652 Y130.674 E0.05053
G1 X163.191 Y131.289 E0.04969
G1 X160.325 Y132.414 E0.09654
G1 X158.692 Y133.009 E0.05451
G1 X156.191 Y133.861 E0.08285
G1 X154.649 Y134.349 E0.05069
G1 X152.311 Y135.043 E0.07648
G1 X151.084 Y135.383 E0.03992
G1 X148.748 Y135.990 E0.07568
G1 X146.190 Y136.592 E0.08238
G1 X144.507 Y136.951 E0.05396
G1 X141.498 Y137.516 E0.09602
G1 X138.588 Y137.965 E0.09229
G1 X137.164 Y138.149 E0.04502
G1 X134.378 Y138.444 E0.08786
G1 X133.006 Y138.557 E0.04315
G1 X130.305 Y138.721 E0.08485
G1 X127.641 Y138.812 E0.08357
G1 X124.647 Y138.837 E0.09387
G1 X122.597 Y138.817 E0.06429
G1 X120.231 Y138.746 E0.07423
G1 X117.887 Y138.622 E0.07360
G1 X115.550 Y138.440 E0.07349
G1 X113.001 Y138.172 E0.08036
G1 X110.840 Y137.887 E0.06833
G1 X108.655 Y137.542 E0.06937
G1 X105.985 Y137.052 E0.08510
G1 X104.105 Y136.659 E0.06024
G1 X102.265 Y136.238 E0.05916
G1 X98.979 Y135.400 E0.10634
G1 X96.650 Y134.737 E0.07593
G1 X95.256 Y134.313 E0.04568
G1 X93.182 Y133.642 E0.06834
G1 X90.271 Y132.624 E0.09671
G1 X87.695 Y131.637 E0.08650
G1 X86.060 Y130.967 E0.05540
G1 X84.418 Y130.258 E0.05607
G1 X82.772 Y129.509 E0.05670
G1 X81.124 Y128.719 E0.05730
G1 X79.477 Y127.886 E0.05785
G1 X78.107 Y127.157 E0.04868
G1 X76.201 Y126.090 E0.06850
G1 X74.578 Y125.125 E0.05917
G1 X72.980 Y124.124 E0.05913
G1 X71.407 Y123.086 E0.05908
G1 X69.861 Y122.012 E0.05904
G1 X68.340 Y120.902 E0.05903
G1 X67.090 Y119.943 E0.04940
G1 X65.381 Y118.572 E0.06872
G1 X63.942 Y117.351 E0.05916
G1 X62.532 Y116.094 E0.05924
G1 X61.144 Y114.794 E0.05963
G1 X59.786 Y113.457 E0.05974
G1 X58.250 Y111.856 E0.06955
G1 X57.172 Y110.683 E0.04998
G1 X55.916 Y109.248 E0.05978
G1 X54.696 Y107.782 E0.05979
G1 X53.512 Y106.287 E0.05979
G1 X52.365 Y104.763 E0.05980
G1 X51.256 Y103.212 E0.05980
G1 X50.185 Y101.634 E0.05979
G1 X49.165 Y100.050 E0.05907
G1 X48.202 Y98.471 E0.05799
G1 X47.294 Y96.901 E0.05686
G1 X46.441 Y95.346 E0.05560
G1 X45.642 Y93.809 E0.05432
G1 X44.896 Y92.293 E0.05300
G1 X44.152 Y90.695 E0.05525
G1 X43.464 Y89.129 E0.05364
G1 X42.830 Y87.596 E0.05200
G1 X42.247 Y86.102 E0.05030
G1 X41.630 Y84.408 E0.05651
G1 X40.786 Y81.880 E0.08357
G1 X40.452 Y80.786 E0.03586
G1 X40.276 Y80.887 E0.00637
G1 X40.091 Y81.040 E0.00752
G1 X39.966 Y81.183 E0.00596
G1 X39.763 Y81.500 E0.01180
G1 X39.390 Y81.392 E0.01217
G1 X39.390 Y80.445 E0.02969
G1 X39.411 Y80.188 E0.00808
G1 X39.477 Y79.930 E0.00836
G1 X39.584 Y79.686 E0.00836
G1 X39.730 Y79.463 E0.00836
G1 X39.911 Y79.267 E0.00836
G1 X40.121 Y79.103 E0.00836
G1 X40.356 Y78.977 E0.00836
G1 X40.608 Y78.891 E0.00836
G1 X40.871 Y78.848 E0.00836
G1 X41.138 Y78.849 E0.00836
G1 X41.401 Y78.893 E0.00836
G1 X41.652 Y78.981 E0.00836
G1 X41.886 Y79.108 E0.00836
G1 X42.096 Y79.273 E0.00836
G1 X42.276 Y79.470 E0.00836
G1 X42.420 Y79.694 E0.00836
G1 X42.522 Y79.929 E0.00803
G1 X43.372 Y82.313 E0.07936
G1 X44.197 Y84.438 E0.07149
G1 X44.831 Y85.952 E0.05147
G1 X45.506 Y87.472 E0.05213
G1 X46.221 Y88.995 E0.05277
G1 X46.978 Y90.520 E0.05340
G1 X47.778 Y92.047 E0.05403
G1 X48.550 Y93.444 E0.05006
G1 X49.359 Y94.838 E0.05054
G1 X50.206 Y96.228 E0.05102
G1 X50.733 Y97.055 E0.03074
G1 X52.015 Y98.990 E0.07278
G1 X52.977 Y100.360 E0.05248
G1 X53.979 Y101.722 E0.05301
G1 X55.021 Y103.074 E0.05353
G1 X56.099 Y104.410 E0.05384
G1 X57.632 Y106.206 E0.07402
G1 X58.305 Y106.967 E0.03187
G1 X59.430 Y108.187 E0.05205
G1 X60.569 Y109.369 E0.05146
G1 X61.720 Y110.513 E0.05088
G1 X62.881 Y111.620 E0.05031
G1 X64.053 Y112.689 E0.04973
G1 X65.366 Y113.836 E0.05467
G1 X66.685 Y114.936 E0.05385
G1 X68.008 Y115.989 E0.05302
G1 X69.867 Y117.389 E0.07296
G1 X71.982 Y118.885 E0.08124
G1 X73.300 Y119.764 E0.04968
G1 X74.613 Y120.602 E0.04883
G1 X76.156 Y121.542 E0.05666
G1 X77.707 Y122.437 E0.05613
G1 X79.848 Y123.599 E0.07638
G1 X81.412 Y124.398 E0.05507
G1 X82.976 Y125.157 E0.05451
G1 X84.538 Y125.877 E0.05391
G1 X86.094 Y126.558 E0.05328
G1 X87.643 Y127.203 E0.05261
G1 X89.183 Y127.812 E0.05191
G1 X90.711 Y128.386 E0.05116
G1 X92.224 Y128.926 E0.05037
G1 X93.719 Y129.433 E0.04952
G1 X96.018 Y130.164 E0.07562
G1 X97.445 Y130.589 E0.04671
G1 X99.742 Y131.228 E0.07473
G1 X101.955 Y131.795 E0.07165
G1 X103.583 Y132.173 E0.05239
G1 X105.279 Y132.533 E0.05437
G1 X106.814 Y132.829 E0.04902
G1 X109.418 Y133.267 E0.08279
G1 X111.804 Y133.616 E0.07559
G1 X113.448 Y133.824 E0.05197
G1 X115.093 Y134.006 E0.05188
G1 X116.740 Y134.161 E0.05187
G1 X118.389 Y134.289 E0.05187
G1 X120.040 Y134.390 E0.05186
G1 X121.692 Y134.462 E0.05186
G1 X123.345 Y134.505 E0.05184
G1 X126.341 Y134.510 E0.09393
G1 X128.296 Y134.462 E0.06134
G1 X129.577 Y134.409 E0.04020
G1 X131.404 Y134.304 E0.05737
G1 X133.130 Y134.174 E0.05428
G1 X134.747 Y134.024 E0.05091
G1 X136.619 Y133.817 E0.05904
G1 X138.193 Y133.616 E0.04977
G1 X140.530 Y133.275 E0.07405
G1 X143.129 Y132.840 E0.08263
G1 X144.721 Y132.534 E0.05081
G1 X146.530 Y132.147 E0.05799
G1 X149.306 Y131.479 E0.08953
G1 X151.152 Y130.987 E0.05990
G1 X153.292 Y130.372 E0.06981
G1 X155.370 Y129.730 E0.06819
G1 X157.395 Y129.058 E0.06690
G1 X159.357 Y128.361 E0.06528
G1 X162.288 Y127.230 E0.09850
G1 X164.080 Y126.484 E0.06088
G1 X165.815 Y125.719 E0.05944
G1 X167.491 Y124.937 E0.05799
G1 X169.886 Y123.740 E0.08396
G1 X172.084 Y122.554 E0.07829
G1 X173.489 Y121.751 E0.05076
G1 X175.388 Y120.602 E0.06958
G1 X176.782 Y119.711 E0.05189
G1 X178.160 Y118.788 E0.05201
G1 X179.514 Y117.839 E0.05184
G1 X180.846 Y116.863 E0.05177
G1 X182.155 Y115.860 E0.05172
G1 X183.442 Y114.829 E0.05168
G1 X184.705 Y113.772 E0.05165
G1 X185.945 Y112.688 E0.05164
G1 X187.160 Y111.578 E0.05158
G1 X188.353 Y110.440 E0.05171
G1 X189.520 Y109.276 E0.05168
G1 X190.663 Y108.087 E0.05171
G1 X191.780 Y106.871 E0.05176
G1 X192.872 Y105.631 E0.05182
G1 X193.939 Y104.365 E0.05190
G1 X194.979 Y103.074 E0.05198
G1 X196.022 Y101.720 E0.05359
G1 X197.409 Y99.813 E0.07394
G1 X197.990 Y98.983 E0.03177
G1 X198.914 Y97.605 E0.05201
G1 X200.143 Y95.656 E0.07226
G1 X201.452 Y93.440 E0.08070
G1 X202.222 Y92.046 E0.04991
G1 X203.025 Y90.515 E0.05421
G1 X203.786 Y88.981 E0.05369
G1 X204.773 Y86.849 E0.07366
G1 X205.811 Y84.418 E0.08290
G1 X206.404 Y82.914 E0.05069
G1 X206.957 Y81.423 E0.04987
G1 X207.478 Y79.929 E0.04959
G1 X207.580 Y79.694 E0.00805
G1 X207.724 Y79.470 E0.00836
G1 X207.904 Y79.273 E0.00836
G1 X208.114 Y79.108 E0.00836
G1 X208.348 Y78.981 E0.00836
G1 X208.602 Y78.893 E0.00842
G1 X208.897 Y78.849 E0.00938
G1 X209.129 Y78.848 E0.00725
G1 X209.392 Y78.891 E0.00836
G1 X209.644 Y78.977 E0.00836
G1 X209.879 Y79.103 E0.00836
G1 X210.089 Y79.267 E0.00836
G1 X210.270 Y79.463 E0.00836
G1 X210.416 Y79.686 E0.00836
G1 X210.523 Y79.930 E0.00836
G1 X210.589 Y80.188 E0.00836
G1 X210.610 Y80.445 E0.00808
G1 X210.610 Y81.332 E0.02781
G1 X210.685 Y81.772 F12000.000
G1 F9600
G1 X210.237 Y81.500 E-0.08497
G1 X210.034 Y81.183 E-0.07823
G1 X209.909 Y81.040 E-0.03947
G1 X209.724 Y80.887 E-0.04987
G1 X209.548 Y80.786 E-0.04226
G1 X209.157 Y82.062 E-0.27725
G1 X208.874 Y82.921 E-0.18795
G1 E-0.04000 F2100.00000
G1 Z0.800 F12000.000
G1 X129.935 Y134.010
G1 Z0.200
G1 E0.80000 F2100.00000
G1 F1200
G1 X128.284 Y134.085 E0.05184
G1 X126.336 Y134.133 E0.06108
G1 X123.350 Y134.128 E0.09363
G1 X121.705 Y134.085 E0.05159
G1 X119.852 Y134.000 E0.05817
G1 X120.805 Y134.044 E0.02993
G1 X122.891 Y134.099 E0.06541
G1 X125.001 Y134.117 E0.06615
G1 X127.542 Y134.091 E0.07970
G1 X129.875 Y134.014 E0.07319
G1 F9600
G1 X128.284 Y134.085 E-0.33110
G1 X126.336 Y134.133 E-0.40483
G1 X126.220 Y134.133 E-0.02407
G1 E-0.04000 F2100.00000
G1 Z0.800 F12000.000
G1 X39.013 Y81.675
G1 Z0.200
G1 E0.80000 F2100.00000
G1 F1200
G1 X39.928 Y81.941 E0.02987
G1 X40.255 Y81.431 E0.01897
G1 X40.427 Y81.995 E0.01848
G1 X41.274 Y84.533 E0.08388
G1 X41.894 Y86.235 E0.05680
G1 X42.480 Y87.737 E0.05056
G1 X43.117 Y89.277 E0.05224
G1 X43.808 Y90.851 E0.05390
G1 X44.556 Y92.455 E0.05550
G1 X45.306 Y93.979 E0.05326
G1 X46.109 Y95.524 E0.05458
G1 X46.965 Y97.086 E0.05587
G1 X47.878 Y98.664 E0.05713
G1 X48.846 Y100.250 E0.05827
G1 X49.870 Y101.842 E0.05936
M73 P0 R129
G1 X50.946 Y103.427 E0.06008
G1 X52.061 Y104.987 E0.06009
G1 X53.214 Y106.518 E0.06009
G1 X54.403 Y108.020 E0.06009
G1 X55.629 Y109.493 E0.06008
G1 X56.891 Y110.935 E0.06007
G1 X57.975 Y112.115 E0.05025
G1 X59.518 Y113.722 E0.06984
G1 X60.883 Y115.066 E0.06005
G1 X62.277 Y116.372 E0.05992
G1 X63.694 Y117.636 E0.05953
G1 X65.141 Y118.863 E0.05946
G1 X66.858 Y120.240 E0.06901
G1 X68.114 Y121.204 E0.04966
G1 X69.642 Y122.320 E0.05931
G1 X71.196 Y123.399 E0.05932
G1 X72.776 Y124.441 E0.05936
G1 X74.382 Y125.447 E0.05941
G1 X76.012 Y126.416 E0.05947
G1 X77.926 Y127.488 E0.06878
G1 X79.304 Y128.221 E0.04893
G1 X80.957 Y129.057 E0.05810
G1 X82.612 Y129.851 E0.05755
G1 X84.265 Y130.603 E0.05693
G1 X85.914 Y131.314 E0.05630
G1 X87.556 Y131.987 E0.05565
G1 X90.140 Y132.977 E0.08676
G1 X91.609 Y133.504 E0.04893
G1 X93.064 Y134.000 E0.04820
G1 X95.143 Y134.673 E0.06854
G1 X96.544 Y135.099 E0.04589
G1 X98.881 Y135.764 E0.07619
G1 X102.177 Y136.605 E0.10665
G1 X104.024 Y137.028 E0.05942
G1 X105.913 Y137.422 E0.06049
G1 X108.591 Y137.914 E0.08539
G1 X110.786 Y138.260 E0.06966
G1 X112.956 Y138.547 E0.06864
G1 X115.515 Y138.816 E0.08068
G1 X117.862 Y138.998 E0.07380
G1 X120.215 Y139.123 E0.07388
G1 X122.589 Y139.194 E0.07448
G1 X124.647 Y139.214 E0.06452
G1 X127.649 Y139.189 E0.09413
G1 X130.323 Y139.098 E0.08388
G1 X133.033 Y138.933 E0.08513
G1 X134.413 Y138.819 E0.04342
G1 X137.209 Y138.524 E0.08814
G1 X138.641 Y138.338 E0.04530
G1 X141.561 Y137.888 E0.09263
G1 X144.582 Y137.321 E0.09636
G1 X146.273 Y136.960 E0.05423
G1 X148.838 Y136.356 E0.08264
G1 X151.182 Y135.747 E0.07591
G1 X152.415 Y135.405 E0.04013
G1 X154.760 Y134.709 E0.07669
G1 X156.308 Y134.219 E0.05093
G1 X158.817 Y133.364 E0.08310
G1 X160.459 Y132.767 E0.05478
G1 X163.333 Y131.638 E0.09683
G1 X164.801 Y131.020 E0.04994
G1 X166.281 Y130.366 E0.05074
G1 X167.774 Y129.675 E0.05157
G1 X169.277 Y128.945 E0.05239
G1 X171.109 Y128.007 E0.06454
G1 X172.949 Y127.008 E0.06566
G1 X175.082 Y125.772 E0.07727
G1 X176.615 Y124.833 E0.05637
G1 X178.375 Y123.693 E0.06576
G1 X180.071 Y122.530 E0.06448
G1 X181.696 Y121.352 E0.06293
G1 X183.248 Y120.166 E0.06123
G1 X184.727 Y118.976 E0.05953
G1 X186.136 Y117.786 E0.05782
G1 X187.476 Y116.600 E0.05609
G1 X188.747 Y115.422 E0.05434
G1 X189.951 Y114.255 E0.05257
G1 X191.089 Y113.104 E0.05076
G1 X192.163 Y111.973 E0.04891
G1 X193.173 Y110.865 E0.04701
G1 X194.064 Y109.852 E0.04230
G1 X194.902 Y108.864 E0.04062
G1 X196.419 Y106.990 E0.07559
G1 X197.751 Y105.241 E0.06895
G1 X198.991 Y103.516 E0.06660
G1 X200.153 Y101.802 E0.06492
G1 X201.240 Y100.105 E0.06320
G1 X202.255 Y98.429 E0.06143
G1 X203.200 Y96.779 E0.05961
G1 X204.077 Y95.160 E0.05773
G1 X204.888 Y93.577 E0.05578
G1 X205.637 Y92.035 E0.05375
G1 X206.325 Y90.539 E0.05164
G1 X206.956 Y89.093 E0.04945
G1 X207.530 Y87.702 E0.04717
G1 X208.052 Y86.370 E0.04486
G1 X208.955 Y83.875 E0.08319
G1 X209.745 Y81.431 E0.08055
G1 X210.072 Y81.941 E0.01900
G1 X210.987 Y81.675 E0.02987
G1 X210.987 Y80.429 E0.03906
G1 X210.962 Y80.125 E0.00955
G1 X210.881 Y79.807 E0.01032
G1 X210.749 Y79.505 E0.01032
